X:1
T: The Isle of Sky
C:
R:Reel
Q: 232
K:Bb
M:4/4
L:1/8
|:A|BF DF BF DF|EC C=B cG GA|BF DF BF DF|EC FE DB, B,A|
BF DF BF DF|EC C=B cG GA|BF DF BF DF|EC FE DB, B,A|
Bd fb fd Bd|cB cd cG GA|Bd fb fd Bd|cB cd B1/2B1/2B B2|
Bd fb fd Bd|cB cd cG Gg|fB gB aB bB|cB cd B1/2B1/2B B:|
